X:1
T:[ID 4-31va]
T:[ID 4-31va]
T:Bezeichnung standardisiert: Tantz B\"auerisch; B\"auerscher In dieser Quelle auch als: Schwabisch In dieser Quelle auch als: Tantz Bauerisch
T:Urheber unbekannt Erstbeleg: 1767 (Datum in der schriftlichen Quelle) Datum in der hier transkribierten schriftlichen Quelle: 1773
C:Urheber unbekannt
C:Erstbeleg: 1767 (Datum in der schriftlichen Quelle)
C:Datum in der hier transkribierten schriftlichen Quelle: 1773
L:1/8
M:3/8
K:D
V:1 treble 
V:1
 dfd | ecA | dfd | e3 | dfd | efa | fdc | d3 :: fga | AA/B/A | fga | A3 | dfd | efa | fdc | d3 :| %16

